svgs/sharp-regular/table-list.svg

<svg xmlns="http://www.w3.org/2000/svg" viewBox="0 0 512 512"><!--! Font Awesome Pro 6.6.0 by @fontawesome - https://fontawesome.com License - https://fontawesome.com/license (Commercial License) Copyright 2024 Fonticons, Inc. --><path d="M192 80l0 88 272 0 0-88L192 80zm-48 0L48 80l0 88 96 0 0-88zM48 216l0 80 96 0 0-80-96 0zm0 128l0 88 96 0 0-88-96 0zm144 88l272 0 0-88-272 0 0 88zM464 296l0-80-272 0 0 80 272 0zM0 32l48 0 416 0 48 0 0 48 0 352 0 48-48 0L48 480 0 480l0-48L0 80 0 32z"/></svg>

<svg xmlns="http://www.w3.org/2000/svg" viewBox="0 0 512 512"><!--! Font Awesome Pro 6.4.0 by @fontawesome - https://fontawesome.com License - https://fontawesome.com/license (Commercial License) Copyright 2023 Fonticons, Inc. --><path d="M192 80v88H464V80H192zm-48 0H48v88h96V80zM48 216v80h96V216H48zm0 128v88h96V344H48zm144 88H464V344H192v88zM464 296V216H192v80H464zM0 32H48 464h48V80 432v48H464 48 0V432 80 32z"/></svg>
